<?xml version="1.0" encoding="UTF-8"?>
<map version="1.10" tiledversion="1.11.2" orientation="orthogonal" renderorder="right-down" width="50" height="50" tilewidth="32" tileheight="32" infinite="0" nextlayerid="5" nextobjectid="1">
 <tileset firstgid="1" source="IceTileset.tsx"/>
 <tileset firstgid="181" source="winter-tileset-db32.tsx"/>
 <layer id="1" name="Tile Layer 1" width="50" height="50">
  <data encoding="csv">
42,42,42,42,42,42,42,42,42,42,42,41,83,44,44,44,44,44,43,43,43,43,81,41,41,41,41,41,83,43,43,81,41,41,41,41,41,41,41,41,41,41,41,41,41,41,42,42,42,42,
42,42,42,42,42,42,42,42,42,42,41,41,83,43,44,43,44,43,43,43,43,43,81,41,41,41,41,41,83,43,43,81,41,41,41,41,41,41,41,41,41,41,41,41,41,41,42,42,42,42,
42,42,41,42,42,42,42,42,42,41,41,41,83,43,44,44,43,43,43,43,43,43,81,41,41,41,41,41,83,43,43,81,41,41,41,41,41,41,41,41,41,41,41,41,41,41,42,42,42,42,
42,41,41,41,41,41,41,41,41,41,41,41,83,43,44,44,43,44,43,43,43,43,81,41,41,41,41,64,103,43,44,81,41,41,41,41,41,41,41,41,41,41,41,41,41,41,42,42,42,42,
42,41,41,41,41,41,41,41,41,41,41,41,83,43,43,43,43,43,44,43,43,43,101,65,41,41,41,83,43,44,44,81,41,41,41,41,41,41,41,41,41,41,41,41,41,41,41,42,42,42,
41,41,41,41,41,41,41,41,41,41,41,41,84,62,62,62,63,43,44,44,43,43,43,101,102,102,102,103,44,44,43,81,41,41,41,41,41,41,41,41,41,41,41,41,41,41,41,41,42,42,
41,41,41,41,41,41,41,41,41,41,41,41,41,41,41,41,83,43,43,44,44,43,44,44,44,44,43,43,43,61,62,85,41,41,41,41,41,41,41,41,41,41,41,41,41,41,41,41,41,41,
41,41,41,41,41,41,41,41,41,41,41,41,41,41,41,41,83,44,44,43,44,43,43,44,44,44,44,43,43,81,41,41,41,41,41,41,41,41,41,41,41,41,41,41,41,41,41,41,41,41,
41,41,41,41,41,41,41,41,41,41,41,41,41,41,41,41,83,44,44,44,43,43,43,61,62,62,62,62,62,85,41,41,41,41,41,41,41,41,41,41,41,41,41,41,41,41,41,41,41,41,
41,41,41,41,41,41,41,41,41,41,41,41,41,41,41,41,83,44,43,43,43,43,43,81,41,41,41,41,41,41,41,41,41,41,41,41,41,41,41,41,41,41,41,41,41,41,41,41,41,41,
41,41,41,41,41,41,41,41,41,41,41,41,41,41,41,41,83,43,44,43,44,44,43,81,41,41,41,41,41,41,41,41,41,41,41,41,41,41,41,41,41,41,41,41,41,41,41,41,41,41,
41,41,41,41,41,41,41,41,41,41,41,41,41,41,41,41,83,44,44,43,43,44,44,81,41,41,41,41,41,41,41,41,41,41,41,41,41,41,41,41,41,41,41,41,41,41,41,41,41,41,
41,41,41,41,41,41,41,41,41,41,41,41,41,41,41,41,83,43,44,43,43,44,43,81,41,41,41,41,41,41,41,41,41,41,41,41,41,41,41,41,41,41,41,41,41,41,41,41,41,41,
41,41,41,41,41,41,41,41,41,41,41,41,41,41,41,41,83,43,44,44,44,44,43,81,41,41,41,41,41,41,41,41,41,41,41,41,41,41,41,41,41,41,41,41,41,41,41,41,41,41,
41,41,41,41,41,41,41,41,41,41,41,41,41,41,41,41,83,43,43,44,44,44,43,81,41,41,41,41,41,41,41,41,41,41,41,41,41,41,41,41,41,41,41,64,102,102,102,102,102,102,
41,41,41,41,41,41,41,41,41,41,41,41,41,41,41,41,83,44,43,43,43,44,43,81,41,41,41,41,41,41,41,41,41,41,41,41,41,41,41,41,41,41,41,83,43,43,43,43,43,44,
41,41,41,41,41,41,41,41,41,41,41,41,41,41,41,41,83,44,44,43,43,43,43,81,41,41,41,41,41,41,41,41,41,41,41,41,41,41,64,102,102,102,102,103,43,43,43,44,44,43,
41,41,41,41,41,41,41,41,41,41,41,41,41,41,41,41,83,43,44,44,43,43,43,101,102,102,102,102,102,102,102,102,102,102,102,102,102,102,103,43,43,43,43,43,43,61,62,62,62,62,
41,41,41,41,41,41,41,41,41,41,41,41,41,41,41,41,84,62,62,62,62,43,43,43,43,43,43,43,43,43,43,43,43,43,43,43,43,43,43,43,61,62,62,62,62,85,41,41,41,41,
41,41,41,41,41,41,41,41,41,41,41,41,41,41,41,41,41,41,83,43,43,43,43,44,43,43,43,43,43,43,43,43,43,43,43,44,43,43,43,43,81,41,41,41,41,41,41,41,41,41,
41,41,41,41,41,41,41,41,41,41,41,41,41,41,41,41,41,41,83,43,43,44,44,44,44,44,44,43,43,43,43,43,43,44,44,44,44,44,43,43,81,41,41,41,41,41,41,41,41,41,
41,41,41,41,41,41,41,41,41,41,41,41,41,41,41,41,41,41,83,43,43,43,44,44,44,43,43,43,44,44,44,43,43,44,43,43,44,44,43,43,81,41,41,41,41,41,41,41,41,41,
102,102,102,102,102,102,102,102,102,102,102,102,102,102,102,102,102,102,103,43,43,43,43,43,43,43,43,43,43,43,43,43,43,43,43,43,43,43,43,43,101,102,102,102,65,41,41,41,41,41,
43,44,43,44,43,43,43,43,44,43,43,43,43,43,43,43,43,43,43,44,43,61,62,62,62,62,62,62,62,62,62,62,62,62,62,63,43,44,43,43,43,43,43,43,81,41,41,41,41,41,
62,62,62,62,62,63,43,44,43,61,62,62,62,62,62,62,62,62,63,43,43,81,41,42,42,42,42,42,42,42,42,41,41,41,41,83,43,43,44,44,44,44,44,43,81,41,41,41,41,41,
102,102,102,102,102,103,43,44,61,85,41,41,41,41,41,41,41,41,83,43,43,81,42,42,42,42,42,42,42,42,42,42,41,41,41,83,43,43,43,44,44,44,44,43,81,41,41,41,41,41,
43,43,43,43,44,43,44,44,81,41,41,41,41,41,41,41,41,41,83,43,43,101,102,65,42,42,42,42,42,42,42,42,41,41,41,83,43,43,43,43,43,43,43,43,101,102,102,102,102,102,
44,61,62,62,62,62,62,62,85,41,41,41,41,41,41,41,41,41,84,63,43,44,44,81,41,41,42,42,42,42,42,42,41,41,41,84,62,62,62,62,62,63,43,43,43,43,43,43,43,43,
43,81,41,41,41,41,41,41,41,41,41,41,41,41,41,41,41,41,41,83,43,43,44,81,41,41,42,42,42,42,42,41,41,41,41,41,41,41,41,41,41,83,43,44,43,43,43,43,44,43,
62,85,41,41,41,41,41,41,41,41,41,41,41,41,41,41,41,41,41,83,43,43,44,81,41,41,41,41,41,41,41,41,41,41,41,41,41,41,41,41,41,83,43,43,44,44,44,44,44,43,
41,41,41,41,41,41,41,41,41,41,41,41,41,41,41,41,41,41,41,83,43,44,43,81,41,41,41,41,41,41,41,41,41,41,41,41,41,41,41,41,41,83,43,43,44,43,43,43,43,43,
41,41,41,41,41,41,41,41,41,41,41,41,41,41,41,41,41,41,41,83,43,43,43,81,41,41,41,41,41,41,41,41,41,41,41,41,41,41,41,41,41,83,43,44,43,44,43,43,43,43,
41,41,41,41,41,41,41,41,41,41,41,41,41,41,41,41,41,41,41,83,43,43,43,81,41,41,41,41,41,41,41,41,41,41,41,41,41,41,41,41,41,83,43,44,44,44,44,43,43,43,
41,41,41,41,41,41,41,41,41,41,41,41,41,41,41,41,41,41,41,83,44,43,43,81,41,41,41,41,41,41,41,41,41,41,41,41,41,41,41,41,41,83,43,44,43,43,44,44,44,43,
41,41,41,41,41,41,41,41,41,41,41,41,41,41,41,41,41,41,41,83,43,44,43,81,41,41,41,41,41,41,41,41,41,41,41,41,41,41,41,41,41,83,43,43,43,43,43,43,43,43,
41,41,41,41,41,41,41,41,41,41,41,41,41,41,41,41,41,41,41,83,43,43,43,81,41,41,41,41,41,41,41,41,41,41,41,41,41,41,41,41,41,84,62,62,62,62,62,62,62,62,
41,41,41,41,41,41,41,41,41,41,41,41,41,41,41,41,41,41,41,83,43,44,43,81,41,41,41,41,41,41,41,41,41,41,41,41,41,41,41,41,41,41,41,41,41,41,41,41,41,41,
41,41,41,41,41,41,41,41,41,41,41,41,41,42,42,42,41,41,41,83,43,44,43,81,41,41,41,41,41,41,41,41,41,41,41,41,41,41,41,41,41,41,41,41,41,41,41,41,41,41,
41,41,41,41,41,41,41,41,41,41,41,41,42,42,42,42,41,41,41,83,43,44,43,81,41,41,41,41,41,41,41,41,41,41,41,41,41,41,41,41,41,41,41,41,41,41,41,41,41,41,
41,41,41,41,41,41,41,41,41,41,41,42,42,42,42,42,42,41,41,83,43,44,43,81,41,41,41,41,41,41,41,41,41,41,41,41,41,41,41,41,41,41,41,41,41,41,41,41,41,41,
41,41,41,41,41,41,41,41,41,41,41,42,42,42,42,42,41,41,41,83,43,43,43,81,41,41,41,41,41,41,41,41,41,41,41,41,41,41,41,41,41,41,41,41,41,41,41,41,41,41,
41,41,41,41,41,41,41,41,41,41,41,41,41,42,42,64,102,102,102,103,43,43,43,81,41,41,41,41,41,41,41,41,41,41,41,41,41,41,41,41,41,41,41,41,41,41,41,41,41,41,
41,41,41,41,41,41,41,41,41,41,41,41,41,41,41,83,43,43,43,43,44,44,44,81,41,41,41,41,41,41,41,41,41,41,41,41,41,41,41,41,41,41,41,41,41,41,41,41,41,41,
102,102,102,102,102,102,102,102,102,102,102,102,102,102,102,103,43,43,43,43,44,44,61,85,41,41,41,41,41,41,41,41,41,41,41,41,41,41,41,41,41,41,41,41,41,41,41,41,41,41,
43,43,43,44,44,44,43,43,43,43,43,43,43,43,43,43,43,43,43,44,44,44,81,41,41,41,41,41,41,41,41,41,41,41,41,41,41,41,41,41,41,41,41,41,41,41,41,41,41,42,
43,44,44,44,43,43,43,43,43,43,43,43,43,43,44,44,43,43,43,43,43,43,81,41,41,41,41,41,41,41,41,41,41,41,41,41,41,41,41,41,41,41,41,41,41,41,41,41,42,42,
43,44,44,44,43,43,43,43,43,43,43,44,44,44,43,43,43,43,43,43,43,43,81,41,41,41,41,41,41,41,41,41,41,41,41,41,41,41,41,41,41,41,41,41,41,41,41,42,42,42,
43,43,44,44,44,44,43,43,43,43,43,43,43,43,43,43,43,43,43,43,43,43,81,41,41,41,41,41,41,41,41,41,41,41,41,41,41,41,41,41,41,41,41,41,41,41,42,42,42,42,
43,43,44,43,43,43,43,43,61,62,62,62,62,62,62,62,62,62,62,62,62,62,85,41,42,42,42,42,42,42,41,41,41,41,41,41,41,41,41,41,41,41,41,41,41,41,42,42,42,42,
43,43,43,43,43,43,43,43,81,41,41,41,41,41,41,41,41,41,41,41,41,41,41,42,42,42,42,42,42,42,42,42,42,42,41,41,41,41,41,41,41,41,41,41,41,42,42,42,42,42
</data>
 </layer>
 <layer id="3" name="Tile Layer 2" width="50" height="50">
  <data encoding="csv">
0,0,0,0,0,0,0,0,0,0,0,0,0,0,0,0,0,0,0,0,0,0,0,0,0,0,0,0,0,0,0,0,0,0,0,0,0,0,0,0,0,0,0,0,0,0,0,0,0,0,
0,0,0,0,0,0,0,0,0,0,0,0,0,0,0,0,0,0,0,0,0,0,0,4,0,0,0,0,0,0,0,0,0,0,0,0,0,0,0,0,0,0,22,1,0,0,0,0,0,0,
0,0,0,0,0,0,0,0,0,0,0,0,0,0,0,0,0,0,0,0,0,0,0,0,0,0,0,0,0,0,0,0,0,0,0,0,0,0,0,0,0,0,0,21,0,0,0,0,0,0,
0,0,0,0,182,0,0,0,0,0,0,0,0,0,0,0,0,0,0,0,0,0,0,0,0,186,0,0,0,0,0,0,0,0,0,0,0,0,1,0,0,0,0,0,0,0,0,0,0,0,
0,0,0,0,0,4,0,0,0,0,0,0,0,0,0,0,0,0,0,0,0,0,0,0,0,0,0,0,0,0,0,0,0,0,0,0,0,0,21,0,0,0,0,0,0,0,0,0,0,0,
0,0,0,0,0,0,0,0,0,0,0,0,0,0,0,0,0,0,0,0,0,0,0,0,0,0,0,0,0,0,0,0,0,0,0,0,0,0,0,22,0,0,0,0,0,1,0,0,0,0,
0,0,0,0,0,0,0,0,0,0,0,0,0,0,0,3,0,0,0,0,0,0,0,0,0,0,0,0,0,0,0,0,0,0,0,0,0,0,0,0,0,0,0,0,0,21,0,0,0,0,
0,0,0,0,0,0,0,0,0,0,0,0,0,0,0,0,0,0,0,0,0,0,0,0,0,0,0,0,0,0,0,0,0,0,0,0,0,0,0,0,0,0,0,0,0,0,22,0,0,0,
0,0,0,0,0,0,183,184,186,0,0,0,0,0,0,0,0,0,0,0,0,0,0,0,0,0,0,0,0,0,0,0,0,0,0,0,0,0,0,0,0,0,0,0,0,0,4,0,0,0,
0,0,0,0,0,187,188,189,190,0,0,0,0,0,0,0,0,0,0,0,0,0,0,0,0,0,0,0,0,0,0,0,0,0,0,0,0,0,0,0,183,184,0,0,0,0,0,0,0,0,
0,0,0,0,0,192,3,194,195,0,0,0,0,0,0,0,0,0,0,0,0,0,0,0,0,0,0,0,0,1,0,0,0,0,0,0,0,0,0,187,188,189,190,0,0,0,0,0,0,0,
0,0,0,0,0,0,0,0,0,0,0,0,0,0,0,0,0,0,0,0,0,0,0,0,0,0,0,0,0,21,0,0,0,0,0,0,0,0,186,192,181,194,195,0,0,0,0,0,0,0,
0,0,0,0,0,0,0,0,0,0,0,0,0,0,0,0,0,0,0,0,0,0,0,0,0,182,0,0,0,0,0,0,0,0,0,0,0,0,0,0,3,0,0,0,0,0,0,0,0,0,
0,0,0,0,0,0,0,0,0,0,0,0,0,0,0,0,0,0,0,0,0,0,0,0,0,0,0,0,0,0,0,0,0,0,0,0,0,0,0,0,0,0,0,0,0,0,0,0,0,0,
0,0,0,0,0,0,0,0,0,0,0,0,0,0,0,0,0,0,0,0,0,0,0,0,0,0,0,0,0,0,0,0,0,182,0,0,0,0,0,0,0,0,0,0,0,0,0,0,0,0,
0,0,0,0,0,0,0,0,0,0,0,0,0,191,0,0,0,0,0,0,0,0,0,0,0,0,0,0,0,0,0,0,0,0,0,0,0,0,0,0,0,0,191,0,0,0,0,0,0,0,
0,0,0,0,0,0,0,0,0,0,0,0,0,0,0,0,0,0,0,0,0,0,0,0,0,0,0,0,0,0,0,0,0,0,0,0,0,0,0,0,0,0,0,0,0,0,0,0,0,0,
0,0,0,0,182,0,0,0,0,0,0,0,0,0,0,0,0,0,0,0,0,0,0,0,0,0,0,0,0,0,0,0,0,0,0,0,0,0,0,0,0,0,0,0,0,0,0,0,0,0,
0,0,0,0,0,0,0,0,0,0,0,0,183,184,0,0,0,0,0,0,23,0,0,0,0,0,0,0,0,0,0,0,0,0,0,0,0,0,0,0,0,0,0,0,0,0,0,0,0,0,
0,0,0,0,0,0,0,0,0,0,0,187,188,189,190,0,0,0,0,0,0,0,0,0,0,0,0,0,0,0,0,0,0,0,0,0,0,0,0,0,0,0,0,0,0,0,0,0,0,0,
0,0,0,0,0,0,0,0,0,0,0,192,193,194,195,0,0,0,0,0,0,0,0,0,0,0,0,0,0,0,0,0,0,0,0,0,0,0,0,0,0,0,0,3,0,0,0,0,0,0,
0,0,0,0,0,0,0,0,0,0,0,0,0,0,0,0,0,0,0,0,0,0,0,0,0,0,0,0,0,0,0,0,0,0,0,0,0,0,0,0,0,0,0,0,0,0,1,0,0,0,
0,0,0,0,0,0,0,0,0,0,0,0,0,0,0,0,0,0,0,0,0,0,0,0,0,0,0,0,0,0,0,0,0,0,0,0,0,0,0,0,0,0,0,0,0,22,21,0,0,0,
0,0,0,0,0,0,0,0,0,0,0,0,0,0,0,0,0,0,0,0,0,0,0,0,0,0,0,0,0,0,0,0,0,0,0,0,0,0,0,0,0,0,0,0,0,0,0,0,0,0,
0,0,0,0,0,0,0,0,0,0,0,0,0,0,0,0,0,0,0,0,0,0,0,0,0,0,0,0,0,0,0,0,0,0,0,0,0,0,0,0,0,0,0,0,0,191,0,0,0,0,
0,0,0,0,0,0,0,0,0,0,0,0,4,0,0,0,0,0,0,0,0,0,0,0,0,0,0,0,0,0,0,0,0,0,0,0,0,0,0,0,0,0,0,0,0,0,0,0,0,0,
0,0,0,0,0,0,0,0,0,0,0,0,0,0,0,0,0,23,0,0,0,0,0,0,0,0,0,0,0,0,0,0,182,0,0,0,0,0,0,0,0,0,0,0,0,0,0,0,0,0,
0,0,0,0,0,0,0,0,0,0,0,186,0,0,0,0,0,0,0,0,0,0,0,0,0,0,0,0,0,0,0,0,0,22,0,0,0,0,0,0,0,0,0,0,0,0,0,0,0,0,
0,0,0,0,0,0,0,0,0,0,0,0,0,0,0,0,0,0,0,0,0,0,0,0,0,0,0,0,0,0,0,0,0,0,0,0,0,0,0,0,0,0,0,0,0,0,0,0,0,0,
0,0,0,0,182,0,0,0,0,0,0,0,0,0,0,0,0,0,0,0,0,0,0,0,0,0,0,0,0,0,0,0,0,0,0,0,186,0,0,0,0,0,0,0,0,0,0,0,0,0,
0,0,0,0,0,0,0,0,0,191,0,0,0,0,0,0,0,0,0,0,0,0,0,0,0,0,1,0,0,0,0,0,0,0,0,0,0,0,0,0,0,0,0,0,0,0,0,0,0,0,
0,0,0,0,0,0,0,0,0,0,0,0,0,0,0,0,0,0,0,0,0,0,0,0,0,3,21,0,0,0,0,0,0,0,0,0,0,0,0,0,0,0,0,0,0,0,0,0,0,0,
22,1,0,0,0,0,0,0,0,0,0,0,0,0,0,0,22,0,0,0,0,0,0,0,0,0,22,0,0,0,0,0,0,0,0,0,0,0,0,0,0,0,0,0,0,0,0,0,0,0,
1,21,0,0,0,0,0,0,0,0,0,0,0,0,0,0,0,0,0,0,0,0,0,0,0,0,0,0,0,0,0,0,0,0,0,0,0,0,0,0,0,0,0,0,0,0,0,0,0,0,
21,0,0,0,0,0,0,0,0,0,0,0,0,0,0,0,0,0,0,0,0,0,0,0,0,0,0,0,0,0,0,0,0,0,0,0,0,0,0,191,0,0,0,0,0,0,0,0,0,0,
0,0,0,0,0,0,0,0,0,0,0,0,0,0,0,0,0,0,0,0,0,0,0,0,0,0,0,0,183,184,0,0,0,0,0,0,0,0,0,0,0,0,0,0,0,0,0,0,0,0,
0,0,0,0,0,0,0,0,0,0,0,182,0,0,0,0,0,0,0,0,0,0,0,0,0,0,0,187,188,189,190,0,0,0,0,0,0,0,0,0,0,0,0,1,0,0,0,0,0,0,
0,0,0,0,0,0,0,0,0,0,4,0,0,0,0,0,0,182,0,0,0,0,0,0,0,0,0,192,181,194,195,0,0,0,0,0,0,0,0,0,0,0,0,21,1,0,0,0,0,0,
0,0,0,0,0,0,0,0,0,0,0,0,0,0,0,0,0,0,0,0,0,0,0,0,0,0,0,0,0,0,0,0,0,0,0,0,0,0,0,0,0,0,0,0,21,0,0,0,0,0,
0,0,0,0,186,183,184,0,0,0,0,0,0,0,0,0,0,0,0,0,0,0,0,0,0,0,0,0,0,0,0,0,0,0,0,0,0,0,0,0,0,0,0,0,0,0,0,0,0,0,
0,0,0,0,187,188,189,190,0,0,0,0,0,0,0,0,0,0,0,0,0,0,0,0,0,0,0,0,0,0,0,0,0,0,0,0,0,0,0,0,0,0,0,0,0,0,0,0,0,0,
0,0,0,0,192,193,194,195,0,0,0,0,0,0,0,0,0,0,0,0,0,0,0,0,0,0,0,0,0,0,0,0,0,0,0,0,0,182,0,0,0,0,0,0,0,0,0,0,0,0,
0,0,0,0,0,0,0,0,0,0,0,0,3,0,0,0,0,0,0,0,0,0,0,0,0,0,0,0,0,0,0,0,0,0,0,0,22,0,0,0,0,0,0,0,0,0,0,0,0,0,
0,0,0,0,0,0,0,0,0,0,0,0,0,0,0,0,0,0,0,0,0,0,0,0,0,0,0,0,1,0,0,0,0,0,0,0,0,0,0,0,0,183,184,0,0,0,0,0,0,0,
0,0,0,0,0,0,0,0,0,0,0,0,0,0,0,0,0,0,0,0,0,0,0,0,0,0,0,182,21,0,0,0,0,0,0,0,0,0,0,0,187,188,189,190,0,0,0,0,0,0,
0,0,0,0,0,0,0,0,0,0,0,0,0,0,0,0,0,0,0,0,0,0,0,0,0,0,0,0,182,0,0,0,0,0,0,0,0,0,0,0,192,193,194,195,0,0,0,0,0,0,
0,0,0,0,0,0,0,0,0,0,0,0,0,0,0,0,0,0,0,0,0,0,0,0,0,0,0,0,0,0,0,0,0,0,0,0,0,0,0,186,0,0,0,0,0,0,0,0,0,0,
0,0,0,0,0,0,0,0,0,0,0,0,0,0,0,0,0,0,0,0,0,0,0,0,0,0,0,0,0,0,0,0,0,0,0,3,0,0,0,0,0,0,0,0,0,0,0,0,0,0,
0,0,0,0,0,0,0,0,0,0,0,0,0,0,0,0,0,0,0,0,0,0,0,0,0,0,0,0,0,0,0,0,0,0,0,0,0,0,0,0,0,0,0,0,0,0,0,0,0,0,
0,0,0,0,0,0,0,0,0,0,0,0,0,0,0,0,0,0,0,0,0,0,0,0,0,0,0,0,0,0,0,0,0,0,0,0,0,0,0,0,0,0,0,0,0,0,0,0,0,0
</data>
 </layer>
</map>
