<?xml version="1.0" encoding="UTF-8"?>
<map version="1.10" tiledversion="1.11.2" orientation="orthogonal" renderorder="right-down" width="50" height="50" tilewidth="16" tileheight="16" infinite="0" nextlayerid="7" nextobjectid="1">
 <tileset firstgid="1" source="mainlevbuild.tsx"/>
 <tileset firstgid="2561" source="decorative.tsx"/>
 <tileset firstgid="2817" source="Other_objects.tsx"/>
 <tileset firstgid="2971" source="supplies_objects.tsx"/>
 <layer id="1" name="Tile Layer 1" width="50" height="50">
  <data encoding="csv">
0,0,0,0,0,0,0,0,0,0,0,0,0,0,0,0,0,0,0,0,0,0,0,0,0,0,0,0,0,0,0,0,0,0,0,0,0,0,0,0,0,0,0,0,0,0,0,0,0,0,
0,0,0,0,0,0,0,0,0,0,0,0,0,0,0,0,0,0,0,0,0,0,0,0,0,0,0,0,0,0,0,0,0,0,0,0,0,0,0,0,0,0,0,0,0,0,0,0,0,0,
0,0,0,0,0,0,0,0,0,1135,1135,1135,1135,1135,1135,1135,1135,1135,1135,1135,1135,1135,1135,1135,1135,1135,1135,1135,1135,1135,1135,1135,1135,1135,1135,1135,1135,1135,1135,1135,1135,0,0,0,0,0,0,0,0,0,
0,0,0,0,0,0,0,0,0,1135,1135,1135,1135,1135,1135,944,944,944,944,1135,1135,1135,1135,1135,1135,1135,1135,1135,1135,1135,1135,1135,944,944,944,1135,1135,1135,1135,1135,1135,0,0,0,0,0,0,0,0,0,
0,0,0,0,0,0,0,0,0,1135,1135,1135,944,944,1135,944,944,1135,1135,944,944,944,1135,1135,1135,1135,1135,1135,1135,1135,1135,1135,944,1135,944,944,944,944,944,944,1135,0,0,0,0,0,0,0,0,0,
0,0,0,0,0,0,0,0,0,1135,944,944,944,944,944,944,944,944,944,944,944,944,944,944,944,944,944,944,944,944,944,944,944,944,944,944,944,944,944,944,1135,0,0,0,0,0,0,0,0,0,
0,0,0,0,0,0,0,0,0,1135,1135,1135,944,944,1135,1135,1135,1135,1135,944,944,944,944,944,944,944,944,1135,1135,1135,1135,944,944,944,1135,1135,1135,1135,1135,1135,1135,0,0,0,0,0,0,0,0,0,
0,0,0,0,0,0,0,0,0,1135,1135,1135,1135,944,944,944,1135,1135,1135,1135,1392,944,944,944,1135,1135,1135,1135,1135,1135,1135,1135,944,1135,944,1135,1135,1135,1135,1135,1135,0,0,0,0,0,0,0,0,0,
0,0,0,0,0,0,0,0,0,1135,1392,1392,1392,1392,944,1392,944,1392,1392,1392,1135,1135,944,944,944,944,944,944,944,944,944,944,944,944,944,1135,944,944,944,1135,1135,0,0,0,0,0,0,0,0,0,
0,0,0,0,0,0,0,0,0,1135,1135,1392,1392,1392,1392,944,944,1392,1392,1392,1392,1392,1392,944,1392,1392,1392,1392,1392,1392,1135,1135,1135,1135,944,944,1135,1135,1135,1135,1135,0,0,0,0,0,0,0,0,0,
0,0,0,0,0,0,0,0,0,1135,1135,1135,1135,1135,1135,1135,1135,1135,1135,1135,1135,1135,1135,1135,944,1135,1135,1135,1135,1135,1392,1392,1135,1135,1135,1135,1135,1135,1135,1135,1135,0,0,0,0,0,0,0,0,0,
0,0,0,0,0,0,0,0,0,0,0,0,0,0,0,0,0,0,0,0,0,0,1135,944,944,944,1135,1135,0,0,0,0,0,0,0,0,0,0,0,0,0,0,0,0,0,0,0,0,0,0,
0,1135,1135,1135,1135,1135,1135,0,0,0,0,0,0,0,0,0,0,0,0,0,0,0,1135,944,1135,944,1135,1135,0,0,0,0,0,0,0,0,0,0,0,0,0,0,0,0,0,0,0,0,0,0,
0,1135,1135,1135,1135,944,1135,0,0,0,0,0,0,0,0,0,0,0,0,0,0,0,1135,1135,944,1135,944,1135,0,0,0,0,0,0,0,0,0,0,0,0,0,0,0,0,0,0,0,0,0,0,
0,944,944,944,944,944,944,0,0,0,0,0,0,0,0,0,0,0,0,0,0,0,1135,1135,944,944,1135,944,0,0,0,0,0,0,0,0,0,0,0,0,0,0,0,0,0,0,0,0,0,0,
0,944,1135,1135,1135,944,1135,0,0,0,0,0,0,0,0,0,0,0,0,0,0,0,1135,1135,1135,944,1135,944,0,0,0,0,0,0,0,0,0,0,0,0,0,0,0,0,0,0,0,0,0,0,
0,1135,944,1135,1135,944,1135,0,0,0,0,0,0,0,0,0,0,0,0,0,0,0,944,944,944,944,1135,944,0,0,0,0,0,0,0,0,0,0,0,0,0,0,0,0,0,0,0,0,0,0,
0,1135,1135,944,1135,944,1135,0,0,0,0,0,0,0,0,0,0,0,0,0,0,0,944,944,944,1135,1135,944,0,0,0,0,0,0,0,0,0,0,0,0,0,0,0,0,0,0,0,0,0,0,
0,1135,1135,944,1135,1135,944,0,0,0,0,0,0,0,0,0,0,0,0,0,0,0,1135,1135,1135,944,944,944,0,0,0,0,0,0,0,0,0,0,0,0,0,0,0,0,0,0,0,0,0,0,
0,1135,1135,1135,944,1135,944,0,0,0,0,0,0,0,0,0,0,0,0,1135,1135,1135,1135,1135,1135,1135,1135,1135,1135,1135,1135,0,0,0,0,0,0,0,0,0,0,0,0,0,0,0,0,0,0,0,
0,1135,1135,1135,944,1135,944,0,0,0,0,0,0,0,0,0,0,0,0,1135,1135,1135,944,944,944,1135,1135,1135,1135,1135,1135,0,0,0,0,0,0,0,0,0,0,0,0,0,0,0,0,0,0,0,
0,1135,1135,1135,944,944,944,0,0,0,0,0,0,0,0,0,0,0,0,1135,944,944,1135,1135,944,944,944,1135,944,944,1135,0,0,0,0,0,0,0,0,0,0,0,0,0,0,0,0,0,0,0,
0,1135,1135,1135,1135,1135,944,944,944,944,1135,1135,1135,1135,1135,944,944,1135,1135,1135,944,944,1711,1712,1713,1712,1713,1714,1135,1135,944,0,0,0,0,0,0,0,0,0,0,0,0,0,0,0,0,0,0,0,
0,1135,1135,944,944,944,944,1135,1135,1135,944,944,1135,1135,1135,1135,944,944,1135,1135,1135,1135,1775,864,865,866,867,1778,1135,1135,1135,0,0,0,0,0,0,0,0,0,0,0,0,0,0,0,0,0,0,0,
0,1135,1135,1135,944,1135,944,944,1135,1135,944,944,944,944,944,1135,1135,944,944,1135,1135,1135,1775,928,929,930,931,1778,1135,1135,1135,0,0,0,0,0,0,0,0,0,0,0,0,0,0,0,0,0,0,0,
0,1135,1135,1135,1135,944,1135,1135,1135,1135,1135,944,1135,944,944,944,1135,944,1135,944,944,1135,1839,992,993,994,995,1842,1135,1135,1135,0,0,0,0,0,0,0,0,0,0,0,0,0,0,0,0,0,0,0,
0,1135,1135,1135,1135,1135,944,1135,1135,1135,1135,1135,944,1135,1135,944,1135,944,1135,1135,944,944,1775,1056,1057,1058,1059,1842,1135,1135,1135,0,0,0,0,0,0,0,0,0,0,0,0,0,0,0,0,0,0,0,
0,1135,1135,1135,1135,1135,944,1135,1135,1135,1135,1135,1135,944,944,1135,944,944,1135,1135,1135,944,1903,1904,1904,1904,1905,1906,944,1135,1135,0,0,0,0,0,0,0,0,0,0,0,0,0,0,0,0,0,0,0,
0,1135,1135,1135,1135,1135,1135,0,0,0,0,0,0,0,0,0,0,0,0,1135,1135,944,1135,1135,1392,1392,1392,1135,944,1135,1135,0,0,0,0,0,0,0,0,0,0,0,0,0,0,0,0,0,0,0,
0,1392,944,944,944,944,944,0,0,0,0,0,0,0,0,0,0,0,0,1135,1135,1135,944,944,1135,1135,1135,1135,944,1135,1135,0,0,0,0,0,0,0,0,0,0,0,0,0,0,0,0,0,0,0,
0,1135,944,1392,1392,1135,1135,0,0,0,0,0,0,0,0,0,0,0,0,1135,1135,1135,1135,1135,944,944,944,944,1135,1135,1135,0,0,0,0,0,0,0,0,0,0,0,0,0,0,0,0,0,0,0,
0,1135,1135,944,1392,1135,1135,0,0,0,0,0,0,0,0,0,0,0,0,0,0,0,0,0,0,0,0,0,0,0,0,0,0,0,0,0,1135,1135,1135,1135,1135,1135,1135,1135,1135,1135,1135,1135,0,0,
0,1135,1135,1135,944,1135,1135,0,0,0,0,0,0,0,0,0,0,0,0,0,0,0,0,0,0,0,0,0,0,0,0,0,0,0,0,0,1135,1135,1135,1135,1135,1135,1135,1135,1135,1135,1135,1135,0,0,
0,1135,1135,1135,1392,944,1135,0,0,0,0,0,0,0,0,0,0,0,0,0,0,0,0,0,0,0,0,0,0,0,0,0,0,0,0,0,1135,1135,1135,1135,1135,1135,1135,1135,1135,1135,1135,1135,0,0,
0,1135,1135,1392,1135,1135,944,0,0,0,0,0,0,0,0,0,0,0,0,0,0,0,0,0,0,0,0,0,0,0,0,0,0,0,0,0,1135,1135,1135,944,944,1135,1135,1135,1135,1135,1135,1135,0,0,
0,1135,944,944,944,944,944,0,0,0,0,0,0,0,0,0,0,0,0,0,0,0,0,0,0,0,0,0,0,0,0,0,0,0,0,0,1135,1135,1135,944,944,944,944,1135,1135,1135,1135,1135,0,0,
0,1135,944,944,1135,1135,1135,0,0,0,0,0,0,0,0,0,0,0,0,0,0,0,0,0,0,0,0,0,0,0,0,0,0,0,0,0,1135,1135,1135,944,1135,1135,1135,944,944,944,944,1135,0,0,
0,1135,1392,944,944,1135,1135,0,0,0,0,0,0,0,0,0,0,0,0,0,0,0,0,0,0,0,0,0,0,0,0,0,0,0,0,0,1135,1135,1135,944,1135,1135,1135,1135,1135,1135,1135,1135,0,0,
0,1135,1392,1135,1135,944,1135,1135,1135,1135,1135,1135,1135,1135,1135,1135,1135,1135,1135,1135,0,0,0,0,0,0,0,0,0,0,0,0,0,0,0,0,1135,1135,1135,1135,944,1135,1135,1135,1135,1135,1135,1135,0,0,
0,1135,1392,1135,1135,1135,944,944,1135,1135,1135,1135,1135,1135,1135,1135,1135,1135,1135,1135,1135,1135,1135,1135,1135,1135,1135,1135,1135,1135,1135,1135,1135,1135,1135,1135,1135,1135,1135,1135,1135,944,1135,1135,1135,1135,1135,1135,0,0,
0,1392,944,944,944,944,944,944,1135,1135,1135,1135,1135,1135,1135,1135,1135,1135,1135,1135,1135,1135,1135,1135,1135,944,944,944,944,944,944,944,1135,1135,1135,1135,1135,1135,1135,1135,1135,1135,944,944,1135,1135,1135,1135,0,0,
0,1392,1392,944,944,1135,1135,1135,1135,1135,1135,1135,944,944,944,944,944,944,944,1135,1135,1135,1135,1135,1135,944,944,1135,1135,1135,1135,1135,944,944,944,944,1135,1135,1135,1135,1135,1135,1135,1135,944,1135,1135,1392,0,0,
0,1135,1392,1135,944,1135,1135,1135,1135,1135,944,944,1135,1392,1392,944,1392,1392,1392,1135,944,944,944,944,944,944,944,944,944,944,1135,1135,1135,1135,1135,1135,944,944,944,1135,1135,1135,1135,1392,1392,944,944,1135,0,0,
0,1135,1392,1135,1135,944,1135,1135,1135,944,944,1392,1392,1135,944,1135,1135,1135,1392,1392,944,944,944,944,1135,1135,1135,1135,1135,1135,1135,1135,1135,1135,1135,1135,1135,1135,1135,1392,1392,1392,1392,1135,944,944,944,1135,0,0,
0,944,944,944,944,944,944,944,944,944,1392,1135,1135,1135,944,1135,1135,944,944,944,944,944,944,944,944,944,1135,1135,1135,1135,1135,1135,1135,1135,1135,1135,1135,1135,1135,1392,944,944,944,944,1135,1135,1135,1135,0,0,
0,1135,944,944,944,1392,1135,1392,1392,1135,1135,1135,1135,1135,944,944,944,1135,1135,1135,0,0,0,0,0,0,0,0,0,0,0,0,0,0,0,0,1135,1135,944,944,944,1135,1392,1392,1392,1392,1392,1392,0,0,
0,1135,1135,1392,1392,1392,1392,1392,1392,1392,1135,1135,1135,1135,1135,1135,1135,1135,1135,1135,0,0,0,0,0,0,0,0,0,0,0,0,0,0,0,0,1135,944,944,1135,1135,1135,1135,1135,1135,1135,1392,1392,0,0,
0,1392,1392,1392,1392,1392,1392,1392,1392,1392,1135,1135,1135,1135,1135,1135,1135,1135,1135,1135,0,0,0,0,0,0,0,0,0,0,0,0,0,0,0,0,1135,1135,1135,1392,1392,1392,1392,1392,1392,1392,1135,1135,0,0,
0,0,0,0,0,0,0,0,0,0,0,0,0,0,0,0,0,0,0,0,0,0,0,0,0,0,0,0,0,0,0,0,0,0,0,0,0,0,0,0,0,0,0,0,0,0,0,0,0,0,
0,0,0,0,0,0,0,0,0,0,0,0,0,0,0,0,0,0,0,0,0,0,0,0,0,0,0,0,0,0,0,0,0,0,0,0,0,0,0,0,0,0,0,0,0,0,0,0,0,0
</data>
 </layer>
 <layer id="4" name="Tile Layer 4" width="50" height="50">
  <data encoding="csv">
0,0,0,0,0,0,0,0,0,0,0,0,0,0,0,0,0,0,0,0,0,0,0,0,0,0,0,0,0,0,0,0,0,0,0,0,0,0,0,0,0,0,0,0,0,0,0,0,0,0,
0,0,0,0,0,0,0,0,0,0,0,0,0,0,0,0,0,0,0,0,0,0,0,0,0,0,0,0,0,0,0,0,0,0,0,0,0,0,0,0,0,0,0,0,0,0,0,0,0,0,
0,0,0,0,0,0,0,0,0,0,0,0,0,0,0,0,0,0,0,0,0,0,0,0,0,0,0,0,0,0,0,0,0,0,0,0,0,0,0,0,0,0,0,0,0,0,0,0,0,0,
0,0,0,0,0,0,0,0,0,0,0,0,0,0,0,0,0,0,0,0,0,0,0,0,0,0,0,0,0,0,0,0,0,0,0,0,0,0,0,0,0,0,0,0,0,0,0,0,0,0,
0,0,0,0,0,0,0,0,0,0,0,0,0,0,0,0,0,0,0,0,0,0,0,0,0,0,0,0,0,0,0,0,0,0,0,0,0,0,0,0,0,0,0,0,0,0,0,0,0,0,
0,0,0,0,0,0,0,0,0,0,0,0,0,0,0,0,0,0,0,0,0,0,0,0,0,0,0,0,0,0,0,0,0,0,0,0,0,0,0,0,0,0,0,0,0,0,0,0,0,0,
0,0,0,0,0,0,0,0,0,0,0,0,0,0,0,0,0,0,0,0,0,0,0,0,0,0,0,0,0,0,0,0,0,0,0,0,0,0,0,0,0,0,0,0,0,0,0,0,0,0,
0,0,0,0,0,0,0,0,0,0,0,0,0,0,0,0,0,0,0,0,0,0,0,0,0,0,0,0,0,0,0,0,0,0,0,0,0,0,0,0,0,0,0,0,0,0,0,0,0,0,
0,0,0,0,0,0,0,0,0,0,0,0,0,0,0,0,0,0,0,0,0,0,0,0,0,0,0,0,0,0,0,0,0,0,0,0,0,0,0,0,0,0,0,0,0,0,0,0,0,0,
0,0,0,0,0,0,0,0,0,0,0,0,0,0,0,0,0,0,0,0,0,0,0,0,0,0,0,0,0,0,0,0,0,0,0,0,0,0,0,0,0,0,0,0,0,0,0,0,0,0,
0,0,0,0,0,0,0,0,0,0,0,0,0,0,0,0,0,0,0,0,0,0,0,0,0,0,0,0,0,0,0,0,0,0,0,0,0,0,0,0,0,0,0,0,0,0,0,0,0,0,
0,0,0,0,0,0,0,0,0,0,0,0,0,0,0,0,0,0,0,0,0,0,0,0,0,0,0,0,0,0,0,0,0,0,0,0,0,0,0,0,0,0,0,0,0,0,0,0,0,0,
0,0,0,0,0,0,0,0,0,0,0,0,0,0,0,0,0,0,0,0,0,0,0,0,0,0,0,0,0,0,0,0,0,0,0,0,0,0,0,0,0,0,0,0,0,0,0,0,0,0,
0,0,0,0,0,0,0,0,0,0,0,0,0,0,0,0,0,0,0,0,0,0,0,0,0,0,0,0,0,0,0,0,0,0,0,0,0,0,0,0,0,0,0,0,0,0,0,0,0,0,
0,0,0,0,0,0,0,0,0,0,0,0,0,0,0,0,0,0,0,0,0,0,0,0,0,0,0,0,0,0,0,0,0,0,0,0,0,0,0,0,0,0,0,0,0,0,0,0,0,0,
0,0,0,0,0,0,0,0,0,0,0,0,0,0,0,0,0,0,0,0,0,0,0,0,0,0,0,0,0,0,0,0,0,0,0,0,0,0,0,0,0,0,0,0,0,0,0,0,0,0,
0,0,0,0,0,0,0,0,0,0,0,0,0,0,0,0,0,0,0,0,0,0,0,0,0,0,0,0,0,0,0,0,0,0,0,0,0,0,0,0,0,0,0,0,0,0,0,0,0,0,
0,0,0,0,0,0,0,0,0,0,0,0,0,0,0,0,0,0,0,0,0,0,0,0,0,0,0,0,0,0,0,0,0,0,0,0,0,0,0,0,0,0,0,0,0,0,0,0,0,0,
0,0,0,0,0,0,0,0,0,0,0,0,0,0,0,0,0,0,0,0,0,0,0,0,0,0,0,0,0,0,0,0,0,0,0,0,0,0,0,0,0,0,0,0,0,0,0,0,0,0,
0,0,0,0,0,0,0,0,0,0,0,0,0,0,0,0,0,0,0,0,0,0,0,0,0,0,0,0,0,0,0,0,0,0,0,0,0,0,0,0,0,0,0,0,0,0,0,0,0,0,
0,0,0,0,0,0,0,0,0,0,0,0,0,0,0,0,0,0,0,0,0,0,0,0,0,0,0,0,0,0,0,0,0,0,0,0,0,0,0,0,0,0,0,0,0,0,0,0,0,0,
0,0,0,0,0,0,0,0,0,0,0,0,0,0,0,0,0,0,0,0,0,0,0,0,0,0,0,0,0,0,0,0,0,0,0,0,0,0,0,0,0,0,0,0,0,0,0,0,0,0,
0,0,0,0,0,0,0,0,0,0,0,0,0,0,0,0,0,0,0,0,0,0,0,0,0,0,0,0,0,0,0,0,0,0,0,0,0,0,0,0,0,0,0,0,0,0,0,0,0,0,
0,0,0,0,0,0,0,0,0,0,0,0,0,0,0,0,0,0,0,0,0,0,0,0,0,0,0,0,0,0,0,0,0,0,0,0,0,0,0,0,0,0,0,0,0,0,0,0,0,0,
0,0,0,0,0,0,0,0,0,0,0,0,0,0,0,0,0,0,0,0,0,0,0,0,0,0,0,0,0,0,0,0,0,0,0,0,0,0,0,0,0,0,0,0,0,0,0,0,0,0,
0,0,0,0,0,0,0,0,0,0,0,0,0,0,0,0,0,0,0,0,0,0,0,0,0,0,0,0,0,0,0,0,0,0,0,0,0,0,0,0,0,0,0,0,0,0,0,0,0,0,
0,0,0,0,0,0,0,0,0,0,0,0,0,0,0,0,0,0,0,0,0,0,0,0,0,0,0,0,0,0,0,0,0,0,0,0,0,0,0,0,0,0,0,0,0,0,0,0,0,0,
0,0,0,0,0,0,0,0,0,0,0,0,0,0,0,0,0,0,0,0,0,0,0,0,0,0,0,0,0,0,0,0,0,0,0,0,0,0,0,0,0,0,0,0,0,0,0,0,0,0,
0,0,0,0,0,0,0,1355,1356,1357,1358,1359,1360,1355,1356,1357,1358,1359,1360,0,0,0,0,0,0,0,0,0,0,0,0,0,0,0,0,0,0,0,0,0,0,0,0,0,0,0,0,0,0,0,
0,0,0,0,0,0,0,1419,1420,1421,1422,1423,1424,1419,1420,1421,1422,1423,1424,0,0,0,0,0,0,0,0,0,0,0,0,0,0,0,0,0,0,0,0,0,0,0,0,0,0,0,0,0,0,0,
0,0,0,0,0,0,0,1483,1484,1485,1486,1487,1488,1483,1484,1485,1486,1487,1488,0,0,0,0,0,0,0,0,0,0,0,0,0,0,0,0,0,0,0,0,0,0,0,0,0,0,0,0,0,0,0,
0,0,0,0,0,0,0,1547,1548,1549,1550,1551,1552,1547,1548,1549,1550,1551,1552,0,0,0,0,0,0,0,0,0,0,0,0,0,0,0,0,0,0,0,0,0,0,0,0,0,0,0,0,0,0,0,
0,0,0,0,0,0,0,1611,1612,1613,1614,1615,1616,1611,1612,1613,1614,1615,1616,0,0,0,0,0,0,0,0,0,0,0,0,0,0,0,0,0,0,0,0,0,0,0,0,0,0,0,0,0,0,0,
0,0,0,0,0,0,0,0,0,0,0,0,0,0,0,0,0,0,0,0,0,0,0,0,0,0,0,0,0,0,0,0,0,0,0,0,0,0,0,0,0,0,0,0,0,0,0,0,0,0,
0,0,0,0,0,0,0,0,0,0,0,0,0,0,0,0,0,0,0,0,0,0,0,0,0,0,0,0,0,0,0,0,0,0,0,0,0,0,0,0,0,0,0,0,0,0,0,0,0,0,
0,0,0,0,0,0,0,0,0,0,0,0,0,0,0,0,0,0,0,0,0,0,0,0,0,0,0,0,0,0,0,0,0,0,0,0,0,0,0,0,0,0,0,0,0,0,0,0,0,0,
0,0,0,0,0,0,0,0,0,0,0,0,0,0,0,0,0,0,0,0,0,0,0,0,0,0,0,0,0,0,0,0,0,0,0,0,0,0,0,0,0,0,0,0,0,0,0,0,0,0,
0,0,0,0,0,0,0,0,0,0,0,0,0,0,0,0,0,0,0,0,0,0,0,0,0,0,0,0,0,0,0,0,0,0,0,0,0,0,0,0,0,0,0,0,0,0,0,0,0,0,
0,0,0,0,0,0,0,0,0,0,0,0,0,0,0,0,0,0,0,0,0,0,0,0,0,0,0,0,0,0,0,0,0,0,0,0,0,0,0,0,0,0,0,0,0,0,0,0,0,0,
0,0,0,0,0,0,0,0,0,0,0,0,0,0,0,0,0,0,0,0,0,0,0,0,0,0,0,0,0,0,0,0,0,0,0,0,0,0,0,0,0,0,0,0,0,0,0,0,0,0,
0,0,0,0,0,0,0,0,0,0,0,0,0,0,0,0,0,0,0,0,0,0,0,0,0,0,0,0,0,0,0,0,0,0,0,0,0,0,0,0,0,0,0,0,0,0,0,0,0,0,
0,0,0,0,0,0,0,0,0,0,0,0,0,0,0,0,0,0,0,0,0,0,0,0,0,0,0,0,0,0,0,0,0,0,0,0,0,0,0,0,0,0,0,0,0,0,0,0,0,0,
0,0,0,0,0,0,0,0,0,0,0,0,0,0,0,0,0,0,0,0,0,0,0,0,0,0,0,0,0,0,0,0,0,0,0,0,0,0,0,0,0,0,0,0,0,0,0,0,0,0,
0,0,0,0,0,0,0,0,0,0,0,0,0,0,0,0,0,0,0,0,0,0,0,0,0,0,0,0,0,0,0,0,0,0,0,0,0,0,0,0,0,0,0,0,0,0,0,0,0,0,
0,0,0,0,0,0,0,0,0,0,0,0,0,0,0,0,0,0,0,0,0,0,0,0,0,0,0,0,0,0,0,0,0,0,0,0,0,0,0,0,0,0,0,0,0,0,0,0,0,0,
0,0,0,0,0,0,0,0,0,0,0,0,0,0,0,0,0,0,0,0,1349,1350,1351,1351,1351,1351,1351,1351,1352,1351,1351,1352,1351,1352,1353,1354,0,0,0,0,0,0,0,0,0,0,0,0,0,0,
0,0,0,0,0,0,0,0,0,0,0,0,0,0,0,0,0,0,0,0,1413,1414,1415,1415,1415,1415,1415,1415,1416,1415,1415,1416,1415,1416,1417,1418,0,0,0,0,0,0,0,0,0,0,0,0,0,0,
0,0,0,0,0,0,0,0,0,0,0,0,0,0,0,0,0,0,0,0,1477,1478,1479,1479,1479,1479,1479,1479,1480,1479,1479,1480,1479,1480,1481,1482,0,0,0,0,0,0,0,0,0,0,0,0,0,0,
0,1349,1350,1351,1350,1351,1352,1353,1350,1350,1351,1352,1353,1350,1351,1352,1353,1352,1353,1354,1541,1542,1543,1543,1543,1543,1543,1543,1544,1543,1543,1544,1543,1544,1545,1546,1349,1350,1351,1352,1350,1351,1352,1353,1351,1352,1353,1354,0,0,
0,1413,1414,1415,1414,1415,1416,1417,1414,1414,1415,1416,1417,1414,1415,1416,1417,1416,1417,1418,1605,1606,1607,1607,1607,1607,1607,1607,1608,1607,1607,1608,1607,1608,1609,1610,1413,1414,1415,1416,1414,1415,1416,1417,1415,1416,1417,1418,0,0
</data>
 </layer>
 <layer id="3" name="Tile Layer 3" width="50" height="50">
  <data encoding="csv">
0,0,0,0,0,0,0,0,0,0,0,0,0,0,0,0,0,0,0,0,0,0,0,0,0,0,0,0,0,0,0,0,0,0,0,0,0,0,0,0,0,0,0,0,0,0,0,0,0,0,
0,0,0,0,0,0,0,0,388,544,545,546,547,547,546,547,544,545,546,547,547,544,545,546,547,547,547,544,545,546,547,546,547,544,545,546,547,544,545,546,547,401,0,0,0,0,0,0,0,0,
0,0,0,0,0,0,0,0,452,0,0,0,0,0,0,0,0,0,0,0,0,0,0,0,0,0,0,0,0,0,0,0,0,0,0,0,0,0,0,0,0,465,0,0,0,0,0,0,0,0,
0,0,0,0,0,0,0,0,516,0,0,0,0,0,0,0,0,0,0,0,0,0,0,0,0,0,0,0,0,0,0,0,0,0,0,0,0,0,0,0,0,529,0,0,0,0,0,0,0,0,
0,0,0,0,0,0,0,0,580,0,0,0,0,0,0,0,0,0,0,0,0,0,0,0,0,0,0,0,0,0,0,0,0,0,0,0,0,0,0,0,0,593,0,0,0,0,0,0,0,0,
0,0,0,0,0,0,0,0,644,0,0,0,0,0,0,0,0,0,0,0,0,0,0,0,0,0,0,0,0,0,0,0,0,0,0,0,0,0,0,0,0,657,0,0,0,0,0,0,0,0,
0,0,0,0,0,0,0,0,388,0,0,0,0,0,0,0,0,0,0,0,0,0,0,0,0,0,0,0,0,0,0,0,0,0,0,0,0,0,0,0,0,657,0,0,0,0,0,0,0,0,
0,0,0,0,0,0,0,0,452,0,0,0,0,0,0,0,0,0,0,0,0,0,0,0,0,0,0,0,0,0,0,0,0,0,0,0,0,0,0,0,0,657,0,0,0,0,0,0,0,0,
0,0,0,0,0,0,0,0,516,0,0,0,0,0,0,0,0,0,0,0,0,0,0,0,0,0,0,0,0,0,0,0,0,0,0,0,0,0,0,0,0,657,0,0,0,0,0,0,0,0,
0,0,0,0,0,0,0,0,580,0,0,0,0,0,0,0,0,0,0,0,0,0,0,0,0,0,0,0,0,0,0,0,0,0,0,0,0,0,0,0,0,657,0,0,0,0,0,0,0,0,
0,0,0,0,0,0,0,0,644,0,0,0,0,0,0,0,0,0,0,0,0,0,0,0,0,0,0,0,0,0,0,0,0,0,0,0,0,0,0,0,0,657,0,0,0,0,0,0,0,0,
144,544,545,544,545,546,547,133,452,544,544,545,546,547,544,546,544,545,546,547,546,547,0,0,0,0,0,0,544,544,544,545,546,547,546,547,544,545,546,547,547,657,0,0,0,0,0,0,0,0,
388,0,0,0,0,0,0,593,516,517,518,519,520,521,522,553,517,518,519,520,521,522,0,0,0,0,0,0,517,518,519,520,521,522,553,517,518,519,520,521,522,657,0,0,0,0,0,0,0,0,
388,0,0,0,0,0,0,593,580,581,582,583,584,585,586,617,581,582,583,584,585,586,0,0,0,0,0,0,581,582,583,584,585,586,617,581,582,583,584,585,586,657,0,0,0,0,0,0,0,0,
388,0,0,0,0,0,0,593,644,645,646,647,648,649,650,681,645,646,647,648,649,650,0,0,0,0,0,0,645,646,647,648,649,650,681,645,646,647,648,649,650,657,0,0,0,0,0,0,0,0,
388,0,0,0,0,0,0,593,708,709,710,711,712,713,714,745,709,710,711,712,713,714,0,0,0,0,0,0,709,710,711,712,713,714,745,709,710,711,712,713,714,721,0,0,0,0,0,0,0,0,
388,0,0,0,0,0,0,593,0,0,0,0,0,0,0,0,0,0,0,0,0,0,0,0,0,0,0,0,0,0,0,0,0,0,0,0,0,0,0,0,0,0,0,0,0,0,0,0,0,0,
388,0,0,0,0,0,0,593,0,0,0,0,0,0,0,0,0,0,0,0,0,580,0,0,0,0,0,0,593,0,0,0,0,0,0,0,0,0,0,0,0,0,0,0,0,0,0,0,0,0,
388,0,0,0,0,0,0,593,0,0,0,0,0,0,0,0,0,0,0,0,0,580,0,0,0,0,0,0,657,0,0,0,0,0,0,0,0,0,0,0,0,0,0,0,0,0,0,0,0,0,
452,0,0,0,0,0,0,593,0,0,0,0,0,0,0,0,0,0,516,0,0,0,0,0,0,0,0,0,0,0,0,401,0,0,0,0,0,0,0,0,0,0,0,0,0,0,0,0,0,0,
516,0,0,0,0,0,0,593,0,0,0,0,0,0,0,0,0,0,580,0,0,0,0,0,0,0,0,0,0,0,0,465,0,0,0,0,0,0,0,0,0,0,0,0,0,0,0,0,0,0,
580,0,0,0,0,0,0,657,0,0,0,0,0,0,0,0,0,0,644,0,0,0,0,0,0,0,0,0,0,0,0,529,0,0,0,0,0,0,0,0,0,0,0,0,0,0,0,0,0,0,
644,0,0,0,0,0,0,0,0,0,0,0,0,0,0,0,0,0,0,0,0,0,0,0,0,0,0,0,0,0,0,593,0,0,0,0,0,0,0,0,0,0,0,0,0,0,0,0,0,0,
388,0,0,0,0,0,0,0,0,0,0,0,0,0,0,0,0,0,0,0,0,0,0,0,0,0,0,0,0,0,0,657,0,0,0,0,0,0,0,0,0,0,0,0,0,0,0,0,0,0,
388,0,0,0,0,0,0,0,0,0,0,0,0,0,0,0,0,0,0,0,0,0,0,0,0,0,0,0,0,0,0,593,0,0,0,0,0,0,0,0,0,0,0,0,0,0,0,0,0,0,
388,0,0,0,0,0,0,0,0,0,0,0,0,0,0,0,0,0,0,0,0,0,0,0,0,0,0,0,0,0,0,657,0,0,0,0,0,0,0,0,0,0,0,0,0,0,0,0,0,0,
388,0,0,0,0,0,0,0,0,0,0,0,0,0,0,0,0,0,0,0,0,0,0,0,0,0,0,0,0,0,0,401,0,0,0,0,0,0,0,0,0,0,0,0,0,0,0,0,0,0,
388,0,0,0,0,0,0,0,0,0,0,0,0,0,0,0,0,0,0,0,0,0,0,0,0,0,0,0,0,0,0,465,0,0,0,0,0,0,0,0,0,0,0,0,0,0,0,0,0,0,
452,0,0,0,0,0,0,544,544,544,544,544,544,544,544,544,545,546,547,0,0,0,0,0,0,0,0,0,0,0,0,529,0,0,0,0,0,0,0,0,0,0,0,0,0,0,0,0,0,0,
516,0,0,0,0,0,0,0,0,0,0,0,0,0,0,0,0,0,1796,0,0,0,0,0,0,0,0,0,0,0,0,593,0,0,0,0,0,0,0,0,0,0,0,0,0,0,0,0,0,0,
580,0,0,0,0,0,0,0,0,0,0,0,0,0,0,0,0,0,1860,0,0,0,0,0,0,0,0,0,0,0,0,657,0,0,0,144,546,547,544,544,544,544,544,544,544,544,545,546,133,0,
644,0,0,0,0,0,0,0,0,0,0,0,0,0,0,0,0,0,1924,544,545,546,547,544,545,546,544,544,545,546,547,465,0,0,0,388,0,0,0,0,0,0,0,0,0,0,0,0,465,0,
388,0,0,0,0,0,0,0,0,0,0,0,0,0,0,0,0,0,0,843,844,845,846,847,848,843,844,845,846,847,848,529,0,0,0,452,0,0,0,0,1576,1577,1578,1579,0,0,0,0,529,0,
452,0,0,0,0,0,0,0,0,0,0,0,0,0,0,0,0,0,0,907,908,909,910,911,912,907,908,909,910,911,912,593,0,0,0,516,0,0,0,0,1640,1641,1642,1643,0,0,0,0,593,0,
516,0,0,0,0,0,0,0,0,0,0,0,0,0,0,0,0,0,0,971,972,973,974,975,976,971,972,973,974,975,976,657,0,0,0,580,0,0,0,0,1704,1705,1706,1707,0,0,0,0,657,0,
580,0,0,0,0,0,0,0,0,0,0,0,0,0,0,0,0,0,0,1035,1036,1037,1038,1039,1040,1035,1036,1037,1038,1039,1040,721,0,0,0,644,0,0,0,0,1768,1769,1770,1771,0,0,0,0,657,0,
388,0,0,0,0,0,0,0,0,0,0,0,0,0,0,0,0,0,0,0,0,0,0,0,0,0,0,0,0,0,0,0,0,0,0,644,0,0,0,0,0,0,0,0,0,0,0,0,529,0,
388,0,0,0,0,0,0,544,545,546,547,547,547,547,547,547,544,544,545,546,547,0,0,0,0,0,0,0,0,0,0,0,0,0,0,644,0,0,0,0,0,0,0,0,0,0,0,0,593,0,
388,0,0,0,0,0,0,0,0,0,0,0,0,0,0,0,0,0,0,0,544,544,544,544,544,544,544,544,544,544,544,544,544,545,546,547,0,0,0,0,0,0,0,0,0,0,0,0,657,0,
388,0,0,0,0,0,0,0,0,0,0,0,0,0,0,0,0,0,0,0,0,0,0,0,0,0,0,0,0,0,0,0,0,0,0,0,0,0,0,0,0,0,0,0,0,0,0,0,465,0,
452,0,0,0,0,0,0,0,0,0,0,0,0,0,0,0,0,0,0,0,0,0,0,0,0,0,0,0,0,0,0,0,0,0,0,0,0,0,0,0,0,0,0,0,0,0,0,0,529,0,
388,0,0,0,0,0,0,0,0,0,0,0,0,0,0,0,0,0,0,0,0,0,0,0,0,0,0,0,0,0,0,0,0,0,0,0,0,0,0,0,0,0,0,0,0,0,0,0,593,0,
388,0,0,0,0,0,0,0,0,0,0,0,0,0,0,0,0,0,0,0,0,0,0,0,0,0,0,0,0,0,0,0,0,0,0,0,0,0,0,0,0,0,0,0,0,0,0,0,657,0,
452,0,0,0,0,0,0,0,0,0,0,0,0,0,0,0,0,0,0,0,0,0,0,0,0,0,0,0,0,0,0,0,0,0,0,0,0,0,0,0,0,0,0,0,0,0,0,0,529,0,
516,0,0,0,0,0,0,0,0,0,0,0,0,0,0,0,0,0,0,0,0,0,0,0,0,0,0,0,0,0,0,0,0,0,0,0,0,0,0,0,0,0,0,0,0,0,0,0,593,0,
580,0,0,0,0,0,0,0,0,0,0,0,0,0,0,0,0,0,0,0,544,545,546,547,544,545,544,545,546,544,545,546,544,545,546,547,0,0,0,0,0,0,0,0,0,0,0,0,657,0,
388,0,0,0,0,0,0,0,0,0,0,0,0,0,0,0,0,0,0,0,0,0,0,0,0,0,0,0,0,0,0,0,0,0,0,0,0,0,0,0,0,0,0,0,0,0,0,0,465,0,
452,0,0,0,0,0,0,0,0,0,0,0,0,0,0,0,0,0,0,0,0,0,0,0,0,0,0,0,0,0,0,0,0,0,0,0,0,0,0,0,0,0,0,0,0,0,0,0,529,0,
516,544,545,546,547,544,545,546,547,544,545,546,547,544,545,546,547,544,545,546,0,0,0,0,0,0,0,0,0,0,0,0,0,0,0,0,544,545,546,547,544,544,544,545,544,545,546,547,593,0,
580,0,0,0,0,0,0,0,0,0,0,0,0,0,0,0,0,0,0,0,0,0,0,0,0,0,0,0,0,0,0,0,0,0,0,0,0,0,0,0,0,0,0,0,0,0,0,0,657,0
</data>
 </layer>
 <layer id="5" name="Tile Layer 5" width="50" height="50">
  <data encoding="csv">
0,0,0,0,0,0,0,0,0,0,0,0,0,0,0,0,0,0,0,0,0,0,0,0,0,0,0,0,0,0,0,0,0,0,0,0,0,0,0,0,0,0,0,0,0,0,0,0,0,0,
0,0,0,0,0,0,0,0,0,0,0,0,0,0,0,0,0,0,0,0,0,0,0,0,0,0,0,0,0,0,0,0,0,0,0,0,0,0,0,0,0,0,0,0,0,0,0,0,0,0,
0,0,0,0,0,0,0,0,0,0,0,0,0,0,0,0,0,0,0,0,0,0,0,0,0,0,0,0,0,0,0,0,0,0,0,0,0,0,0,0,0,0,0,0,0,0,0,0,0,0,
0,0,0,0,0,0,0,0,0,0,0,0,0,0,0,0,0,0,0,0,0,0,0,0,0,0,0,0,0,0,0,0,0,0,0,0,0,0,0,0,0,0,0,0,0,0,0,0,0,0,
0,0,0,0,0,0,0,0,0,0,0,0,0,0,0,0,0,0,0,0,0,0,0,0,0,0,0,0,0,0,0,0,0,0,0,0,0,0,0,0,0,0,0,0,0,0,0,0,0,0,
0,0,0,0,0,0,0,0,0,0,0,0,0,0,0,0,0,0,0,0,0,0,0,0,0,0,0,0,0,0,0,0,0,0,0,0,0,0,0,0,0,0,0,0,0,0,0,0,0,0,
0,0,0,0,0,0,0,0,0,0,0,0,0,0,0,0,0,0,0,0,0,0,0,0,0,0,0,0,0,0,0,0,0,0,0,0,0,0,0,0,0,0,0,0,0,0,0,0,0,0,
0,0,0,0,0,0,0,0,0,0,0,0,0,0,0,0,0,0,0,0,0,0,0,0,0,0,0,0,0,0,0,0,0,0,0,0,0,0,0,0,0,0,0,0,0,0,0,0,0,0,
0,0,0,0,0,0,0,0,0,0,0,0,0,0,0,0,0,0,0,0,0,0,0,0,0,0,0,0,0,0,0,0,0,0,0,0,0,0,0,0,0,0,0,0,0,0,0,0,0,0,
0,0,0,0,0,0,0,0,0,0,0,0,0,0,0,0,0,0,0,0,0,0,0,0,0,0,0,0,0,0,0,0,0,0,0,0,0,0,0,0,0,0,0,0,0,0,0,0,0,0,
0,0,0,0,0,0,0,0,0,0,0,0,0,0,0,0,0,0,0,0,0,0,0,0,0,0,0,0,0,0,0,0,0,0,0,0,0,0,0,0,0,0,0,0,0,0,0,0,0,0,
0,0,0,0,0,0,0,0,0,0,0,0,0,0,0,0,0,0,0,0,0,452,0,0,0,0,0,0,401,0,0,0,0,0,0,0,0,0,0,0,0,0,0,0,0,0,0,0,0,0,
0,0,0,0,0,0,0,0,0,0,0,0,0,0,0,0,0,0,0,0,0,516,0,0,0,0,0,0,465,0,0,0,0,0,0,0,0,0,0,0,0,0,0,0,0,0,0,0,0,0,
0,0,0,0,0,0,0,0,0,0,0,0,0,0,0,0,0,0,0,0,0,580,0,0,0,0,0,0,529,0,0,0,0,0,0,0,0,0,0,0,0,0,0,0,0,0,0,0,0,0,
0,0,0,0,0,0,0,0,0,0,0,0,0,0,0,0,0,0,0,0,0,644,0,0,0,0,0,0,593,0,0,0,0,0,0,0,0,0,0,0,0,0,0,0,0,0,0,0,0,0,
0,0,0,0,0,0,0,0,0,0,0,0,0,0,0,0,0,0,0,0,0,644,0,0,0,0,0,0,657,0,0,0,0,0,0,0,0,0,0,0,0,0,0,0,0,0,0,0,0,0,
0,0,0,0,0,0,0,0,0,0,0,0,0,0,0,0,0,0,0,0,0,644,0,0,0,0,0,0,657,0,0,0,0,0,0,0,0,0,0,0,0,0,0,0,0,0,0,0,0,0,
0,0,0,0,0,0,0,0,0,0,0,0,0,0,0,0,0,0,0,0,0,644,0,0,0,0,0,0,657,0,0,0,0,0,0,0,0,0,0,0,0,0,0,0,0,0,0,0,0,0,
0,0,0,0,0,0,0,0,0,0,0,0,0,0,0,0,0,0,138,544,544,545,0,0,0,0,0,0,545,546,547,139,0,0,0,0,0,0,0,0,0,0,0,0,0,0,0,0,0,0,
0,0,0,0,0,0,0,0,0,0,0,0,0,0,0,0,0,0,0,0,0,0,0,0,0,0,0,0,0,0,0,0,0,0,0,0,0,0,0,0,0,0,0,0,0,0,0,0,0,0,
0,0,0,0,0,0,0,0,0,0,0,0,0,0,0,0,0,0,0,0,0,0,0,0,0,0,0,0,0,0,0,0,0,0,0,0,0,0,0,0,0,0,0,0,0,0,0,0,0,0,
0,0,0,0,0,0,0,544,544,544,544,544,544,544,544,544,545,546,547,0,0,0,0,0,0,0,0,0,0,0,0,0,0,0,0,0,0,0,0,0,0,0,0,0,0,0,0,0,0,0,
0,0,0,0,0,0,0,0,0,0,0,0,0,0,0,0,0,0,0,0,0,0,0,0,0,0,0,0,0,0,0,0,0,0,0,0,0,0,0,0,0,0,0,0,0,0,0,0,0,0,
0,0,0,0,0,0,0,0,0,0,0,0,0,0,0,0,0,0,0,0,0,0,0,0,0,0,0,0,0,0,0,0,0,0,0,0,0,0,0,0,0,0,0,0,0,0,0,0,0,0,
0,0,0,0,0,0,0,0,0,0,0,0,0,0,0,0,0,0,0,0,0,0,0,0,0,0,0,0,0,0,0,0,0,0,0,0,0,0,0,0,0,0,0,0,0,0,0,0,0,0,
0,0,0,0,0,0,0,0,0,0,0,0,0,0,0,0,0,0,0,0,0,0,0,0,0,0,0,0,0,0,0,0,0,0,0,0,0,0,0,0,0,0,0,0,0,0,0,0,0,0,
0,0,0,0,0,0,0,0,0,0,0,0,0,0,0,0,0,0,0,0,0,0,0,0,0,0,0,0,0,0,0,0,0,0,0,0,0,0,0,0,0,0,0,0,0,0,0,0,0,0,
0,0,0,0,0,0,0,0,0,0,0,0,0,0,0,0,0,0,0,0,0,0,0,0,0,0,0,0,0,0,0,0,0,0,0,0,0,0,0,0,0,0,0,0,0,0,0,0,0,0,
0,0,0,0,0,0,0,401,0,0,0,0,0,0,0,0,0,0,0,0,0,0,0,0,0,0,0,0,0,0,0,0,0,0,0,0,0,0,0,0,0,0,0,0,0,0,0,0,0,0,
0,0,0,0,0,0,0,465,0,0,0,0,0,0,0,0,0,0,0,0,0,0,0,0,0,0,0,0,0,0,0,0,0,0,0,0,0,0,0,0,0,0,0,0,0,0,0,0,0,0,
0,0,0,0,0,0,0,529,0,0,0,0,0,0,0,0,0,0,0,0,0,0,0,0,0,0,0,0,0,0,0,0,0,0,0,0,0,0,0,0,0,0,0,0,0,0,0,0,0,0,
0,0,0,0,0,0,0,593,0,0,0,0,0,0,0,0,0,0,0,0,0,0,0,0,0,0,0,0,0,0,0,0,0,0,0,0,0,0,0,0,0,0,0,0,0,0,0,0,0,0,
0,0,0,0,0,0,0,657,0,0,0,0,0,0,0,0,0,0,0,0,0,0,0,0,0,0,0,0,0,0,0,0,0,0,0,0,0,0,0,0,0,0,0,0,0,0,0,0,0,0,
0,0,0,0,0,0,0,657,0,0,0,0,0,0,0,0,0,0,0,0,0,0,0,0,0,0,0,0,0,0,0,0,0,0,0,0,0,0,0,0,0,0,0,0,0,0,0,0,0,0,
0,0,0,0,0,0,0,657,0,0,0,0,0,0,0,0,0,0,0,0,0,0,0,0,0,0,0,0,0,0,0,0,0,0,0,0,0,0,0,0,0,0,0,0,0,0,0,0,0,0,
0,0,0,0,0,0,0,657,0,0,0,0,0,0,0,0,0,0,0,0,0,0,0,0,0,0,0,0,0,0,0,0,0,0,0,0,0,0,0,0,0,0,0,0,0,0,0,0,0,0,
0,0,0,0,0,0,0,657,0,0,0,0,0,0,0,0,0,0,0,0,0,0,0,0,0,0,0,0,0,0,0,0,0,0,0,0,0,0,0,0,0,0,0,0,0,0,0,0,0,0,
0,0,0,0,0,0,0,0,0,0,0,0,0,0,0,0,0,0,0,0,0,0,0,0,0,0,0,0,0,0,0,0,0,0,0,0,0,0,0,0,0,0,0,0,0,0,0,0,0,0,
0,0,0,0,0,0,0,0,0,0,0,0,0,0,0,0,0,0,0,0,0,0,0,0,0,0,0,0,0,0,0,0,0,0,0,0,0,0,0,0,0,0,0,0,0,0,0,0,0,0,
0,0,0,0,0,0,0,0,0,0,0,0,0,0,0,0,0,0,0,0,0,0,0,0,0,0,0,0,0,0,0,0,0,0,0,0,0,0,0,0,0,0,0,0,0,0,0,0,0,0,
0,0,0,0,0,0,0,0,0,0,0,0,0,0,0,0,0,0,0,0,0,0,0,0,0,0,0,0,0,0,0,0,0,0,0,0,0,0,0,0,0,0,0,0,0,0,0,0,0,0,
0,0,0,0,0,0,0,0,0,0,0,0,0,0,0,0,0,0,0,0,0,0,0,0,0,0,0,0,0,0,0,0,0,0,0,0,0,0,0,0,0,0,0,0,0,0,0,0,0,0,
0,0,0,0,0,0,0,0,0,0,0,0,0,0,0,0,0,0,0,0,0,0,0,0,0,0,0,0,0,0,0,0,0,0,0,0,0,0,0,0,0,0,0,0,0,0,0,0,0,0,
0,0,0,0,0,0,0,0,0,0,0,0,0,0,0,0,0,0,0,0,0,0,0,0,0,0,0,0,0,0,0,0,0,0,0,0,0,0,0,0,0,0,0,0,0,0,0,0,0,0,
0,0,0,0,0,0,0,0,0,0,0,0,0,0,0,0,0,0,0,0,0,0,0,0,0,0,0,0,0,0,0,0,0,0,0,0,0,0,0,0,0,0,0,0,0,0,0,0,0,0,
0,0,0,0,0,0,0,0,0,0,0,0,0,0,0,0,0,0,0,0,0,0,0,0,0,0,0,0,0,0,0,0,0,0,0,0,0,0,0,0,0,0,0,0,0,0,0,0,0,0,
0,0,0,0,0,0,0,0,0,0,0,0,0,0,0,0,0,0,0,0,0,0,0,0,0,0,0,0,0,0,0,0,0,0,0,0,0,0,0,0,0,0,0,0,0,0,0,0,0,0,
0,0,0,0,0,0,0,0,0,0,0,0,0,0,0,0,0,0,0,0,0,0,0,0,0,0,0,0,0,0,0,0,0,0,0,0,0,0,0,0,0,0,0,0,0,0,0,0,0,0,
0,0,0,0,0,0,0,0,0,0,0,0,0,0,0,0,0,0,0,0,0,0,0,0,0,0,0,0,0,0,0,0,0,0,0,0,0,0,0,0,0,0,0,0,0,0,0,0,0,0,
0,0,0,0,0,0,0,0,0,0,0,0,0,0,0,0,0,0,0,0,0,0,0,0,0,0,0,0,0,0,0,0,0,0,0,0,0,0,0,0,0,0,0,0,0,0,0,0,0,0
</data>
 </layer>
 <layer id="6" name="Tile Layer 6" width="50" height="50">
  <data encoding="csv">
0,0,0,0,0,0,0,0,0,0,0,0,0,0,0,0,0,0,0,0,0,0,0,0,0,0,0,0,0,0,0,0,0,0,0,0,0,0,0,0,0,0,0,0,0,0,0,0,0,0,
0,0,0,0,0,0,0,0,0,2582,0,2585,0,2586,0,0,0,2919,2889,2890,2887,2888,2822,2823,2827,2828,2822,2823,2887,2888,2889,2890,2919,3399,0,0,0,0,0,0,0,0,0,0,0,0,0,0,0,0,
0,0,0,0,0,0,0,0,0,2598,2589,2601,2590,2602,0,0,3389,2941,2911,2912,2909,2910,2844,2845,2849,2850,2844,2845,2909,2910,2911,2912,2941,3412,0,0,0,2698,2753,2754,2755,0,0,0,0,0,0,0,0,0,
0,0,0,0,0,0,0,0,0,2588,2749,2587,0,0,0,0,0,3391,2933,2934,2931,2932,2866,2867,2871,2872,2866,2867,2931,2932,2933,2934,3396,3425,0,0,0,0,2769,2770,2771,0,0,0,0,0,0,0,0,0,
0,0,0,0,0,0,0,0,0,2765,0,0,0,0,0,0,0,0,0,0,0,0,0,0,0,0,0,0,0,0,0,3394,0,0,0,0,0,0,2721,2722,2723,0,0,0,0,0,0,0,0,0,
0,0,0,0,0,0,0,0,0,0,0,0,0,0,0,0,0,0,0,0,0,0,0,0,0,0,0,0,0,0,0,0,0,0,0,0,0,0,2737,2738,2739,0,0,0,0,0,0,0,0,0,
0,0,0,0,0,0,0,0,0,0,0,0,0,0,0,0,0,0,0,0,0,0,0,0,0,0,0,0,0,0,0,0,0,0,0,0,0,0,2689,2690,2691,0,0,0,0,0,0,0,0,0,
0,0,0,0,0,0,0,0,0,0,0,0,0,0,0,0,0,0,0,0,0,0,0,0,0,0,0,0,0,0,0,0,0,0,0,0,0,2714,2705,2706,2707,0,0,0,0,0,0,0,0,0,
0,0,0,0,0,0,0,0,0,2883,2884,0,0,0,0,0,0,0,0,0,0,0,0,0,0,0,0,0,0,0,0,0,0,0,0,0,0,0,2785,2786,2787,0,0,0,0,0,0,0,0,0,
0,0,0,0,0,0,0,0,0,2905,2906,0,3352,3353,3356,3357,3358,3359,3348,3349,2891,2892,0,0,0,0,0,0,2891,2892,3312,3313,3314,0,3320,3321,0,0,2801,2802,2803,0,0,0,0,0,0,0,0,0,
0,0,0,0,0,0,0,0,0,2927,2928,2588,3365,3366,3369,3370,3371,3372,3361,3362,2913,2914,0,0,0,0,0,0,2913,2914,3325,3326,3327,3212,3333,3334,0,2718,2657,2658,2659,0,0,0,0,0,0,0,0,0,
0,2971,2972,0,0,2972,2973,0,0,0,0,0,0,0,0,0,0,0,0,0,0,0,0,0,0,0,0,0,0,0,0,0,0,0,0,0,0,0,0,0,0,0,0,0,0,0,0,0,0,0,
0,2984,2985,2985,2985,2985,2986,0,0,0,0,0,0,0,0,0,0,0,2915,2916,0,0,0,0,0,0,0,0,0,0,2915,2916,0,0,0,0,0,0,0,0,0,0,0,0,0,0,0,0,0,0,
0,2997,2998,2998,2998,2998,2999,0,0,0,0,0,0,0,0,0,0,0,2937,2938,0,0,0,0,0,0,0,0,0,0,2937,2938,0,0,0,0,0,0,0,0,0,0,0,0,0,0,0,0,0,0,
0,3010,3011,0,0,3011,3012,0,0,0,0,0,0,0,0,0,0,0,0,0,0,0,0,0,0,0,0,0,0,0,0,0,0,0,0,0,0,0,0,0,0,0,0,0,0,0,0,0,0,0,
0,0,0,0,0,0,0,0,0,0,0,0,0,0,0,0,0,0,0,0,0,0,0,0,0,0,0,0,0,0,0,0,0,0,0,0,0,0,0,0,0,0,0,0,0,0,0,0,0,0,
0,0,0,0,0,0,0,0,0,0,0,0,0,0,0,0,0,0,0,0,0,0,0,0,0,0,0,0,0,0,0,0,0,0,0,0,0,0,0,0,0,0,0,0,0,0,0,0,0,0,
0,0,0,0,0,0,0,0,0,0,0,0,0,0,0,0,0,0,0,0,0,0,0,0,0,0,0,0,0,0,0,0,0,0,0,0,0,0,0,0,0,0,0,0,0,0,0,0,0,0,
0,0,0,0,0,0,0,0,0,0,0,0,0,0,0,0,0,0,0,0,0,2925,0,0,0,0,0,0,2925,0,0,0,0,0,0,0,0,0,0,0,0,0,0,0,0,0,0,0,0,0,
0,0,0,0,0,3162,3163,0,0,0,0,0,0,0,0,0,0,0,0,0,0,2947,0,0,0,0,0,0,2947,0,0,0,0,0,0,0,0,0,0,0,0,0,0,0,0,0,0,0,0,0,
0,0,0,0,0,3175,3176,0,0,0,0,0,0,0,0,0,0,0,0,0,0,0,0,0,0,0,0,0,0,0,0,0,0,0,0,0,0,0,0,0,0,0,0,0,0,0,0,0,0,0,
0,0,0,0,0,3188,3189,0,0,0,0,0,0,0,0,0,0,0,2926,0,0,0,0,0,0,0,0,0,0,0,0,0,0,0,0,0,0,0,0,0,0,0,0,0,0,0,0,0,0,0,
0,0,0,0,0,0,0,0,0,0,0,0,0,0,0,0,0,0,2948,0,0,0,0,0,0,0,0,0,0,0,0,0,0,0,0,0,0,0,0,0,0,0,0,0,0,0,0,0,0,0,
0,0,0,0,0,0,0,0,0,0,0,0,0,0,0,0,0,0,0,0,0,0,0,0,0,0,0,0,0,0,0,0,0,0,0,0,0,0,0,0,0,0,0,0,0,0,0,0,0,0,
0,0,0,0,0,0,0,0,0,0,0,0,0,0,0,0,0,0,0,0,0,0,0,0,0,0,0,0,0,0,0,0,0,0,0,0,0,0,0,0,0,0,0,0,0,0,0,0,0,0,
0,0,0,0,0,0,0,0,0,0,0,0,0,0,0,0,0,0,0,0,0,0,0,0,0,0,0,0,0,0,0,0,0,0,0,0,0,0,0,0,0,0,0,0,0,0,0,0,0,0,
0,0,0,0,0,0,0,0,0,0,0,0,0,0,0,0,0,0,0,0,0,0,0,0,0,0,0,0,0,0,0,0,0,0,0,0,0,0,0,0,0,0,0,0,0,0,0,0,0,0,
0,0,0,0,0,0,0,0,0,0,0,0,0,0,0,0,0,0,0,0,0,0,0,0,0,0,0,0,0,0,0,0,0,0,0,0,0,0,0,0,0,0,0,0,0,0,0,0,0,0,
0,0,0,0,0,0,3075,0,0,0,0,0,0,0,0,0,0,0,0,0,0,0,0,0,0,0,0,0,0,0,0,0,0,0,0,0,0,0,0,0,0,0,0,0,0,0,0,0,0,0,
0,0,0,0,0,0,3088,0,0,0,0,0,0,0,0,0,0,0,0,2887,2888,0,0,0,0,0,0,0,0,2887,2888,0,0,0,0,0,0,0,0,0,0,0,0,0,0,0,0,0,0,0,
0,0,0,0,0,0,0,0,0,0,0,0,0,0,0,0,0,0,0,2909,2910,0,0,0,0,0,0,0,0,2909,2910,0,0,0,0,0,0,0,0,0,0,0,0,0,0,0,0,0,0,0,
0,0,0,0,0,0,0,0,0,0,0,0,0,0,0,0,0,0,0,0,0,0,0,0,0,0,0,0,0,0,0,0,0,0,0,0,3231,3232,3233,3180,3128,3078,3133,3109,3179,3186,3236,3237,0,0,
0,0,0,0,0,0,0,0,0,0,0,0,0,0,0,0,0,0,0,0,0,0,0,0,0,0,0,0,0,0,0,0,0,0,0,0,3244,3245,3246,3158,3141,0,0,3122,3192,3207,3249,3250,0,0,
0,0,0,0,0,0,0,0,0,0,0,0,0,0,0,0,0,0,0,0,0,0,0,0,0,0,0,0,0,0,0,0,0,0,0,0,3257,3258,3259,3171,0,0,0,0,3187,3220,3262,3263,0,0,
0,0,0,0,0,0,0,0,0,0,0,0,0,0,0,0,0,0,0,0,0,0,0,0,0,0,0,0,0,0,0,0,0,0,0,0,3234,3235,2588,0,0,0,0,0,3200,2589,3203,3204,0,0,
0,0,0,0,0,0,0,0,0,0,0,0,0,0,0,0,0,0,0,0,0,0,0,0,0,0,0,0,0,0,0,0,0,0,0,0,3247,3248,0,0,0,0,0,0,0,0,3216,3217,0,0,
0,3082,0,0,0,0,0,0,0,0,0,0,0,0,0,0,0,0,0,0,0,0,0,0,0,0,0,0,0,0,0,0,0,0,0,0,3260,3261,0,0,0,0,0,0,0,0,3229,3230,0,0,
0,3095,0,0,0,0,0,3106,0,0,0,3423,3408,3429,0,0,0,0,3236,3237,0,0,0,0,0,0,0,0,0,0,0,0,0,0,0,0,3104,0,0,0,0,0,0,0,0,0,3251,3252,0,0,
0,0,0,0,0,0,0,3119,0,0,0,3436,3421,3442,3394,3396,0,0,3249,3250,2920,0,0,0,2920,0,0,0,0,0,0,2920,0,0,0,2920,3117,0,0,0,0,0,0,0,0,0,3264,3265,0,0,
0,0,0,0,0,0,0,0,0,0,0,0,0,0,0,0,0,0,3262,3263,2942,0,0,0,2942,0,0,0,0,0,0,2942,0,0,0,2942,0,0,0,0,0,0,0,0,0,2974,2975,2976,0,0,
0,0,0,0,0,0,0,0,0,0,0,0,0,0,0,0,0,0,0,0,0,0,0,0,0,0,0,0,0,0,0,0,0,0,0,0,0,0,0,0,0,0,0,0,0,2987,2988,2989,0,0,
0,0,0,0,0,0,0,0,0,0,0,0,0,0,0,0,0,0,0,0,0,0,0,0,0,0,0,0,0,0,0,0,0,0,0,0,0,0,0,0,0,0,0,0,0,3000,3001,3002,0,0,
0,0,0,0,0,0,0,0,0,0,0,0,0,0,0,0,0,0,0,0,0,0,0,0,0,0,0,0,0,0,0,0,0,0,0,0,0,0,0,0,0,0,0,0,0,3013,3213,3183,0,0,
0,0,0,0,0,0,0,0,0,0,0,0,0,0,0,0,0,0,0,0,0,0,0,0,0,0,0,0,0,0,0,0,0,0,0,0,0,0,0,0,0,0,0,0,0,0,0,0,0,0,
0,0,0,0,0,0,0,0,0,0,0,0,0,0,0,0,0,0,0,0,0,0,0,0,0,0,0,0,0,0,0,0,0,0,0,0,2980,2981,0,0,0,0,0,0,0,0,0,0,0,0,
0,3125,3126,0,0,0,0,0,0,0,0,0,0,0,0,0,0,0,0,0,0,2920,0,2920,0,0,0,0,0,0,0,0,2920,0,2920,0,2993,2994,2982,2983,0,0,0,0,0,2977,2978,2979,0,0,
0,3138,3139,0,0,0,0,0,0,0,0,0,0,0,0,0,0,0,0,0,0,2942,0,2942,0,0,0,0,0,0,0,0,2942,2942,2942,0,3006,3007,2995,2996,0,3029,3030,3031,0,2990,2991,2992,0,0,
0,3151,3152,0,0,0,0,0,0,0,0,0,0,0,0,3387,3388,3183,3212,3391,0,0,0,0,0,0,0,0,0,0,0,0,0,0,0,0,3081,3077,3008,3009,0,3042,3043,3044,0,3003,3004,3005,0,0,
0,0,0,0,0,0,0,0,0,0,0,0,0,0,0,0,0,0,0,0,0,0,0,0,0,0,0,0,0,0,0,0,0,0,0,0,0,0,0,0,0,0,0,0,0,0,0,0,0,0,
0,0,0,0,0,0,0,0,0,0,0,0,0,0,0,0,0,0,0,0,0,0,0,0,0,0,0,0,0,0,0,0,0,0,0,0,0,0,0,0,0,0,0,0,0,0,0,0,0,0
</data>
 </layer>
</map>
